public/assets/routes_avatar/businessReportSalesInvoiceCollection.svg

<?xml version="1.0" encoding="UTF-8"?>
<svg width="60px" height="60px" viewBox="0 0 60 60" version="1.1" xmlns="http://www.w3.org/2000/svg" xmlns:xlink="http://www.w3.org/1999/xlink">
    <!-- Generator: Sketch 49.3 (51167) - http://www.bohemiancoding.com/sketch -->
    <title>业务报表-销项发票采集</title>
    <desc>Created with Sketch.</desc>
    <defs></defs>
    <g id="icon" stroke="none" stroke-width="1" fill="none" fill-rule="evenodd">
        <g id="业务报表-销项发票采集">
            <circle id="Oval-Copy" fill="#06BC59" cx="30" cy="30" r="30"></circle>
            <path d="M41.260709,27.3966783 L41.260709,29.0936833 L32.068516,29.0936833 L32.068516,27.3966783 L41.260709,27.3966783 Z M32.068516,23.9969785 L41.260709,23.9969785 L41.260709,25.694108 L32.068516,25.694108 L32.068516,23.9969785 Z M42.5179381,42 L17.3795426,42 C16.0674658,42 15,40.7026275 15,39.1079604 L15,20.8920396 C15,19.2973725 16.0674657,18 17.3795426,18 L42.517938,18 C43.8300149,18 45,19.2973725 45,20.8920396 L45,39.1080019 C45,40.702669 43.8300491,42 42.5179381,42 Z M16.399731,20.8920396 L16.399731,39.1080018 C16.399731,39.7646002 16.8392656,40.2988417 17.3795426,40.2988417 L42.5179381,40.2988417 C43.0582151,40.2988417 43.6002691,39.7646001 43.6002691,39.1080018 L43.6002691,20.8920396 C43.6002691,20.2354413 43.0582151,19.7011998 42.5179381,19.7011998 L17.3795426,19.7011998 C16.8392656,19.7011998 16.399731,20.2354413 16.399731,20.8920396 Z M18.6646911,31.7432521 L29.1488672,31.7432521 L29.1488672,33.114886 L24.7822261,33.114886 L24.7822261,34.4865198 C24.7822261,34.9137719 24.6952213,35.2406381 24.5211777,35.4672017 C24.347134,35.6935992 24.0772688,35.819694 23.7116506,35.84532 C23.3459641,35.870946 22.8415005,35.8837797 22.198089,35.8837797 C22.1066418,35.3197589 22.0152287,34.8411303 21.9238498,34.4480601 C22.3175583,34.4736861 22.6727195,34.4865199 22.9891625,34.4865199 C23.235209,34.4865199 23.3583348,34.3027355 23.3583348,33.9353328 L23.3583348,33.114886 L21.5969155,33.114886 L22.2719371,34.2173432 L19.3713911,35.8325693 C19.1182708,35.3026888 18.8685679,34.8326991 18.6225214,34.4224757 C19.23774,34.204551 20.1466425,33.7687016 21.3490578,33.1149275 L18.6646911,33.1149275 L18.6646911,31.7432521 Z M19.3081026,25.8720777 L21.9133244,25.8720777 L21.9133244,25.0772985 L18.9389304,25.0772985 L18.9389304,23.7440828 L28.8641026,23.7440828 L28.8641026,25.0772985 L25.9108276,25.0772985 L25.9108276,25.8720777 L28.5265748,25.8720777 L28.5265748,29.2178675 L19.3081026,29.2178676 L19.3081026,25.8720777 Z M19.4135608,29.8331819 L28.3999975,29.8331819 L28.3999975,31.1022703 L19.4135608,31.1022703 L19.4135608,29.8331819 Z M20.6687053,27.9872389 L21.9132903,27.9872389 L21.9132903,27.1027064 L20.6687053,27.1027064 L20.6687053,27.9872389 Z M23.2844867,25.8720777 L24.5396311,25.8720777 L24.5396311,25.0772985 L23.2844867,25.0772985 L23.2844867,25.8720777 Z M23.2844867,27.9872389 L24.5396311,27.9872389 L24.5396311,27.1027064 L23.2844867,27.1027064 L23.2844867,27.9872389 Z M26.0584554,33.1533458 C26.9444277,33.5209146 27.939378,33.9481666 29.043409,34.4352679 L28.4211165,35.7812758 C27.5773139,35.3454264 26.5928547,34.8711173 25.4678414,34.3583484 L26.0584554,33.1533458 Z M27.1659379,27.9872389 L27.1659379,27.1027064 L25.9107934,27.1027064 L25.9107934,27.9872389 L27.1659379,27.9872389 Z M38.6847393,38.9795397 C36.6513362,38.9795397 35.0585272,37.8098818 35.0585272,36.3166802 C35.0585272,34.8234787 36.6513362,33.6537792 38.6847393,33.6537792 C40.7181424,33.6537792 42.3109857,34.8234787 42.3109857,36.3166802 C42.3109857,37.8098818 40.7181424,38.9795397 38.6847393,38.9795397 Z M38.6847393,34.4844432 C37.8651996,34.4844432 37.0999268,34.6992529 36.529885,35.0892912 C36.021799,35.4370071 35.7419554,35.872898 35.7419554,36.3166802 C35.7419554,36.7604625 36.0217649,37.1963534 36.529885,37.5440277 C37.0999268,37.9341076 37.8651654,38.1488757 38.6847393,38.1488757 C39.5043133,38.1488757 40.2695519,37.934066 40.8395937,37.5440277 C41.3477138,37.1963534 41.6275575,36.7604624 41.6275575,36.3166802 C41.6275575,35.872898 41.347748,35.4370071 40.8395937,35.0892912 C40.2695519,34.6992529 39.5042791,34.4844432 38.6847393,34.4844432 Z" id="Shape" fill="#FFFFFF" fill-rule="nonzero"></path>
            <g id="Group-7" transform="translate(33.000000, 32.000000)">
                <circle id="Oval-6" fill="#06BC59" cx="6.5" cy="6.5" r="6.5"></circle>
                <path d="M2,5.08535285 L2,4 C2,3.44771525 2.44771525,3 3,3 L10,3 C10.5522847,3 11,3.44771525 11,4 L11,5.08535285 C10.5233304,5.29127106 10.1818182,5.84689059 10.1818182,6.5 C10.1818182,7.15310941 10.5233304,7.70872894 11,7.91464715 L11,9 C11,9.55228475 10.5522847,10 10,10 L3,10 C2.44771525,10 2,9.55228475 2,9 L2,7.91464715 C2.47666961,7.70872894 2.81818182,7.15310941 2.81818182,6.5 C2.81818182,5.84689059 2.47666961,5.29127106 2,5.08535285 Z" id="Combined-Shape" stroke="#FFFFFF" fill="#06BC59"></path>
                <path d="M7.30627706,4.00541126 L7.86363636,4.00541126 L7.86363636,5.44480519 L8.85930736,5.44480519 L8.85930736,8.30735931 C8.85930736,8.74025974 8.66991342,8.96212121 8.2965368,8.96212121 L7.78246753,8.96212121 L7.63636364,8.42640693 L8.11796537,8.4534632 C8.23701299,8.4534632 8.2965368,8.36147186 8.2965368,8.18290043 L8.2965368,7.83116883 L6.86796537,7.83116883 L6.86796537,8.97294372 L6.30519481,8.97294372 L6.30519481,5.44480519 L7.30627706,5.44480519 L7.30627706,4.00541126 Z M6.86796537,6.90584416 L6.86796537,7.35497835 L8.2965368,7.35497835 L8.2965368,6.90584416 L6.86796537,6.90584416 Z M8.2965368,6.42965368 L8.2965368,5.98051948 L6.86796537,5.98051948 L6.86796537,6.42965368 L8.2965368,6.42965368 Z M6.63528139,4.21103896 C6.79761905,4.47619048 6.95454545,4.76839827 7.10606061,5.09307359 L6.65151515,5.32034632 C6.5,4.995671 6.33766234,4.69805195 6.16450216,4.43831169 L6.63528139,4.21103896 Z M8.53463203,4.15151515 L9,4.37878788 C8.87012987,4.7034632 8.70779221,5.01731602 8.5021645,5.32034632 L8.04761905,5.08225108 C8.25324675,4.76839827 8.41558442,4.45995671 8.53463203,4.15151515 Z M4.7034632,4 L5.24458874,4.11363636 C5.20670996,4.26515152 5.16883117,4.40584416 5.12554113,4.54112554 L6.02380952,4.54112554 L6.02380952,5.07683983 L4.94155844,5.07683983 C4.86038961,5.27705628 4.77380952,5.46645022 4.68722944,5.63961039 L5.93181818,5.63961039 L5.93181818,6.14285714 L5.43398268,6.14285714 L5.43398268,6.65151515 L6.11580087,6.65151515 L6.11580087,7.17099567 L5.43398268,7.17099567 L5.43398268,8.22619048 C5.65584416,8.13961039 5.87770563,8.03679654 6.09415584,7.90692641 L6.19155844,8.39935065 C5.81818182,8.59415584 5.39069264,8.75649351 4.90909091,8.88636364 L4.67640693,8.39935065 C4.81168831,8.35064935 4.88203463,8.27489177 4.88203463,8.17748918 L4.88203463,7.17099567 L4.20021645,7.17099567 L4.20021645,6.65151515 L4.88203463,6.65151515 L4.88203463,6.14285714 L4.62229437,6.14285714 L4.62229437,5.76406926 C4.56818182,5.86147186 4.51406926,5.9534632 4.45995671,6.04004329 L4,5.7478355 C4.33549784,5.2012987 4.56818182,4.61688312 4.7034632,4 Z" id="销" fill="#FFFFFF"></path>
            </g>
        </g>
    </g>
</svg>

<svg width="60" height="60" xmlns="http://www.w3.org/2000/svg"><g fill="none" fill-rule="evenodd"><circle fill="#06BC59" cx="30" cy="30" r="30"/><path d="M41.26 27.397v1.697H32.07v-1.697h9.192zm-9.191-3.4h9.192v1.697h-9.192v-1.697zM42.518 42H17.38C16.067 42 15 40.703 15 39.108V20.892C15 19.297 16.067 18 17.38 18h25.138C43.83 18 45 19.297 45 20.892v18.216C45 40.703 43.83 42 42.518 42zM16.4 20.892v18.216c0 .657.44 1.19.98 1.19h25.138c.54 0 1.082-.533 1.082-1.19V20.892c0-.657-.542-1.19-1.082-1.19H17.38c-.54 0-.98.533-.98 1.19zm2.265 10.851h10.484v1.372h-4.367v1.372c0 .427-.087.754-.26.98-.175.227-.445.353-.81.378-.366.026-.87.039-1.514.039a22.091 22.091 0 0 0-.274-1.436c.394.026.749.039 1.065.039.246 0 .37-.184.37-.552v-.82h-1.762l.675 1.102-2.9 1.616c-.254-.53-.503-1-.75-1.41.616-.218 1.525-.654 2.727-1.308h-2.684v-1.372zm.643-5.87h2.605v-.796H18.94v-1.333h9.925v1.333h-2.953v.795h2.616v3.346h-9.219v-3.346zm.106 3.96H28.4v1.27h-8.986v-1.27zm1.255-1.846h1.244v-.884H20.67v.884zm2.615-2.115h1.256v-.795h-1.256v.795zm0 2.115h1.256v-.884h-1.256v.884zm2.774 5.166c.886.368 1.881.795 2.985 1.282l-.622 1.346a67.606 67.606 0 0 0-2.953-1.423l.59-1.205zm1.108-5.166v-.884H25.91v.884h1.255zM38.685 38.98c-2.034 0-3.626-1.17-3.626-2.663 0-1.494 1.592-2.663 3.626-2.663 2.033 0 3.626 1.17 3.626 2.663 0 1.493-1.593 2.663-3.626 2.663zm0-4.496c-.82 0-1.585.215-2.155.605-.508.348-.788.784-.788 1.228 0 .443.28.88.788 1.227.57.39 1.335.605 2.155.605.82 0 1.585-.215 2.155-.605.508-.348.788-.784.788-1.227 0-.444-.28-.88-.788-1.228-.57-.39-1.336-.605-2.155-.605z" fill="#FFF" fill-rule="nonzero"/><g transform="translate(33 32)"><circle fill="#06BC59" cx="6.5" cy="6.5" r="6.5"/><path d="M2 5.085V4a1 1 0 0 1 1-1h7a1 1 0 0 1 1 1v1.085c-.477.206-.818.762-.818 1.415s.341 1.209.818 1.415V9a1 1 0 0 1-1 1H3a1 1 0 0 1-1-1V7.915c.477-.206.818-.762.818-1.415S2.477 5.291 2 5.085z" stroke="#FFF" fill="#06BC59"/><path d="M7.306 4.005h.558v1.44h.995v2.862c0 .433-.19.655-.562.655h-.515l-.146-.536.482.027c.119 0 .179-.092.179-.27V7.83H6.868v1.142h-.563V5.445h1.001v-1.44zm-.438 2.9v.45h1.429v-.45H6.868zm1.429-.475v-.45H6.868v.45h1.429zM6.635 4.21c.163.265.32.557.471.882l-.454.227a6.724 6.724 0 0 0-.487-.882l.47-.227zm1.9-.06L9 4.38c-.13.324-.292.638-.498.941l-.454-.238c.205-.314.368-.622.487-.93zM4.703 4l.542.114a6.858 6.858 0 0 1-.12.427h.899v.536H4.942c-.082.2-.168.39-.255.563h1.245v.503h-.498v.509h.682v.519h-.682v1.055c.222-.086.444-.19.66-.32l.098.493c-.374.195-.801.357-1.283.487L4.676 8.4c.136-.048.206-.124.206-.222V7.171H4.2v-.52h.682v-.508h-.26v-.379c-.054.097-.108.19-.162.276L4 5.748A5.621 5.621 0 0 0 4.703 4z" fill="#FFF"/></g></g></svg>
